svgs/nekome.svg

<svg width="192" height="192" viewBox="0 0 192 192" fill="none" xmlns="http://www.w3.org/2000/svg">
<path d="M41.1665 134C41.1665 104.711 47.2149 84.4032 41.1665 59C41.1665 59 73.1339 74.7258 94.3923 74.7258C115.651 74.7258 150.037 59 150.037 59C143.989 84.4032 150.037 104.711 150.037 134H41.1665Z" stroke="black" stroke-width="14" stroke-linecap="round" stroke-linejoin="round"/>
<path d="M173 93.4595L150.112 99.1647" stroke="black" stroke-width="6" stroke-linecap="round" stroke-linejoin="round"/>
<path d="M173 108.409H161.206H149.411" stroke="black" stroke-width="6" stroke-linecap="round" stroke-linejoin="round"/>
<path d="M173 124.569L150.112 118.862" stroke="black" stroke-width="6" stroke-linecap="round" stroke-linejoin="round"/>
<path d="M19 93.4595L41.8884 99.1647" stroke="black" stroke-width="6" stroke-linecap="round" stroke-linejoin="round"/>
<path d="M19 108.409H30.7944H42.5887" stroke="black" stroke-width="6" stroke-linecap="round" stroke-linejoin="round"/>
<path d="M19 124.569L41.888 118.862" stroke="black" stroke-width="6" stroke-linecap="round" stroke-linejoin="round"/>
<path d="M61.731 98.3511C70.3867 91.5989 77.4876 93.3504 85.9246 100.129" stroke="black" stroke-width="6" stroke-linecap="round" stroke-linejoin="round"/>
</svg>

<svg xmlns="http://www.w3.org/2000/svg" width="192" height="192" fill="none" viewBox="0 0 192 192"><path stroke="#000" stroke-linecap="round" stroke-linejoin="round" stroke-width="14" d="M41.166 134c0-29.289 6.049-49.597 0-75 0 0 31.968 15.726 53.226 15.726 21.259 0 55.645-15.726 55.645-15.726-6.048 25.403 0 45.711 0 75H41.167Z"/><path stroke="#000" stroke-linecap="round" stroke-linejoin="round" stroke-width="6" d="m173 93.46-22.888 5.705M173 108.409h-23.589M173 124.569l-22.888-5.707M19 93.46l22.888 5.705M19 108.409h23.589M19 124.569l22.888-5.707m19.843-20.511c8.656-6.752 15.757-5 24.194 1.778"/></svg>
